!!!COM: Beethoven
!!!OTL: 7 Variations on a Quartet by Winter
!!!Variation: Variation 6 a
**function	**harm	**kern	**kern
*	*	*clefF4	*clefG2
*	*	*k[b-e-a-d-]	*k[b-e-a-d-]
*M2/4	*M2/4	*M2/4	*M2/4
*f:	*f:	*f:	*f:
4T	B-:min	4r	(4cc
=295	=295	=295	=295
*	*	*^	*
2T	B-:min	[2FF	8FFL	8a-L
.	.	.	8FJ	8fJ
.	.	.	8FL	8a-L
.	.	.	8FJ	8ccJ)
=296	=296	=296	=296	=296
4.T	F:7/3	2FF_	8FL	(4.e 4.b- 4.dd-
.	.	.	8FJ	.
.	.	.	8FL	.
8T	B-:min	.	8FJ	8f) 8a- 8cc
=297	=297	=297	=297	=297
8T	F:7/5	2FF_	8FL	(8gL 8b- 8ee
8T	B-:min/b3	.	8FJ	8a-J 8cc 8ff
8T	F:7/b7	.	8FL	8b-L 8dd- 8gg
8T	B-:min/b3	.	8FJ	8a-J) 8cc 8ff
=298	=298	=298	=298	=298
*	*	*	*	*^
4T	C:7	2FF_	8FL	4.g 4.b-	4ff
.	.	.	8FJ	.	.
4T	F:maj	.	8FL	.	8eeL
*	*	*	*	*v	*v
.	.	.	8FJ	(8ccJ
=299	=299	=299	=299	=299
2T	B-:min	2FF]	8FL	8a-L
.	.	.	8FJ	8fJ
.	.	.	8FL	8a-L
.	.	.	8FJ	8ccJ)
=300	=300	=300	=300	=300
4T	F:7/3	2FF	8FFL	4.e 4.b- 4.dd-
.	.	.	8FJ	.
4T	B-:min	.	8FL	.
.	.	.	8FJ	(8f [8a- [8cc
*	*	*v	*v	*
=301	=301	=301	=301
*	*	*	*^
4P	C:dim/b3	8BB-L	4d-	8a-L] 8cc]
.	.	8BB-J	.	8gJ 8b-
*	*	*	*v	*v
8D	B-:min/5	8CL	8cL 8fL 8a-
8D	F:7	8CJ	8B-J) 8eJ 8g
=302	=302	=302	=302
4.T	B-:min	8FFL	(4B- (4e 4g
.	.	8CJ	.
.	.	8FL	8A-) 8f)
*-	*-	*-	*-
!!!EMD: Edited in humdrumR 0.7.0.3 on 2024-01-19
